X: 20948
T: Joys Of Quebec
R: reel
M: 4/4
K: Amajor
|:ee|e2 cc c2 ee|e2 cc c2 ee|f2 e2 d2 c2|d2 BB B2 dd|
d2 BB B2 dd|d2 BB B2 d2|1 g2 f2 e2 d2|a4- A2 ee:|2 g2 f2 e2 g2|a4- a2 cd||
e4 f4|e4- e2 AB|c4 d4|c4- c2 Ac|
B3 A G2 A2|B4- B2 Bc|g2 f2 e2 d2|c4- c2 cd|
e4 f4|g4- g2 AB|c4 d4|c4 c2 Ac|
B3 A G2 A2|B4- B2 Bc|d2 ef d2 g2|a4- a2||

